X:1
T:Killaloe
N:from the box playing of Mrs Gibbons (Sally Sloane's twin sister)
Z:Ian Hayden 2017
L:1/8
M:2/4
K:G
K:Cmaj
E2[|C2>D2 E2>D2|C4 C2>B,2|A,2>B,2 C2>A,2|G,4 z2G,2\
|E2>E2 E2>D2|E2>G2 F2>E2|D4-|D2z2 E2>D2|
|C2D E2D|C3 C2B,|A,2B, C2A,|G,3 C2D|E2E E2C|DD2 D2B,|C6-|C2zD2E|
|F2F F2F|F3 EF2|G2G G2E|C3-C2 G,|C2C C2D|E2E D2C|D3 z3|z3 E2D|
|C2D E2D|C3 C2B,|A,2B, C2A,|G,3 C2D|E2E E2C|DE2 E2D|C6-|C6|]
